48x48/apps/mnemosyne.svg

<svg xmlns="http://www.w3.org/2000/svg" width="48" height="48" version="1.1">
 <path style="fill:none;stroke:#17191e;stroke-width:2" d="m 8,22 c 5.473699,0.397948 5.381114,2.143342 7,7"/>
 <g style="opacity:0.2" transform="matrix(0.0408898,0,0,0.0408898,3.9457629,4.5891637)">
  <g>
   <path transform="matrix(24.455977,0,0,24.455977,-96.497486,-87.776619)" d="m 24.107015,4.0078125 c -5.282691,0.4265577 -8.507383,19.3262155 -8.043539,24.1601565 -0.04106,-0.02445 -0.08514,-0.03944 -0.126953,-0.0625 C 18.333553,31.802233 22.258736,38.417556 24,41 c 2.535167,-0.0082 6.516748,3.12567 10.029297,2.996094 2.339973,-0.08632 5.511967,-3.151989 4.894531,-11.787915 -0.613347,-8.631836 -11.36841,-5.818359 -11.384766,-5.818359 2.191694,-1.56199 3.957215,-3.137094 5.735922,-4.028492 2.007689,-1.247139 -0.674788,-4.989055 -3.144532,-9.429687 C 28.069606,9.2270247 26.425871,4.656145 25.190999,4.1777344 24.821202,4.03232 24.459194,3.9793753 24.107015,4.0078125 Z"/>
  </g>
 </g>
 <g style="opacity:0.2" transform="matrix(0.0408898,0,0,0.0408898,3.8459092,4.5891637)">
  <g>
   <path transform="matrix(24.455977,0,0,24.455977,-96.497486,-87.776619)" d="m 14.373044,28.197268 c -0.797351,0.977266 0.150391,2.820312 0.150391,2.820312 0,0 7.67204,11.007441 8.804687,12.283203 1.136736,1.279851 2.441014,0.629721 1.488281,-1.136719 -0.126187,-0.232449 -0.376721,-0.714536 -0.640625,-1.224609 L 17.356492,29.549611 c -0.642988,-0.987752 -0.988202,-1.499243 -1.954151,-1.789843 0,0 -0.792518,0.216077 -1.029297,0.4375 z m 0.595705,-0.400393 c -0.126758,0.0368 -0.244884,0.09791 -0.359375,0.179687 0.360279,-0.180632 0.359375,-0.179687 0.359375,-0.179687 z"/>
  </g>
 </g>
 <g style="fill:#f4f4f7" transform="matrix(0.0408898,0,0,0.0408898,3.9457629,3.5891684)">
  <g style="fill:#f4f4f7">
   <path style="fill:#f4f4f7" transform="matrix(24.455977,0,0,24.455977,-96.497486,-87.776619)" d="m 24.107015,4.0078125 c -5.282691,0.4265577 -8.507383,19.3262155 -8.043539,24.1601565 -0.04106,-0.02445 -0.08514,-0.03944 -0.126953,-0.0625 C 18.333553,31.802233 22.258736,38.417556 24,41 c 2.535167,-0.0082 6.516748,3.12567 10.029297,2.996094 2.339973,-0.08632 5.511967,-3.151989 4.894531,-11.787915 -0.613347,-8.631836 -11.36841,-5.818359 -11.384766,-5.818359 2.191694,-1.56199 3.957215,-3.137094 5.735922,-4.028492 2.007689,-1.247139 -0.674788,-4.989055 -3.144532,-9.429687 C 28.069606,9.2270247 26.425871,4.656145 25.190999,4.1777344 24.821202,4.03232 24.459194,3.9793753 24.107015,4.0078125 Z"/>
  </g>
 </g>
 <g style="fill:#f4f4f7" transform="matrix(0.0408898,0,0,0.0408898,3.9457629,3.5891684)">
  <g style="fill:#f4f4f7">
   <path style="fill:#f4f4f7;opacity:0.2" transform="matrix(24.455977,0,0,24.455977,-96.497486,-87.776619)" d="M 24.107422 4.0078125 C 19.025008 4.4181985 15.857672 21.891671 16.037109 27.523438 C 16.204249 21.066593 19.297705 5.3961793 24.107422 5.0078125 C 24.459601 4.9793753 24.821609 5.03232 25.191406 5.1777344 C 26.426278 5.656145 28.070013 10.227024 30.130859 13.931641 C 31.814162 16.958241 33.593257 19.658015 33.921875 21.466797 C 34.329926 19.758934 32.161912 16.583499 30.130859 12.931641 C 28.070013 9.2270243 26.426278 4.656145 25.191406 4.1777344 C 24.821609 4.03232 24.459601 3.9793753 24.107422 4.0078125 z M 30.986328 25.955078 C 30.363609 25.96781 29.786991 26.018244 29.287109 26.080078 C 28.714052 26.517052 28.172755 26.939001 27.539062 27.390625 C 27.555419 27.390625 38.310481 24.577148 38.923828 33.208984 C 38.959218 33.703979 38.978873 34.175884 38.990234 34.634766 C 39.000141 33.875888 38.985962 33.078041 38.923828 32.208984 C 38.540486 26.814087 34.195126 25.889475 30.986328 25.955078 z M 15.935547 28.105469 C 15.962141 28.146483 15.998425 28.206323 16.025391 28.248047 C 16.024984 28.211364 16.021644 28.185959 16.021484 28.148438 C 15.992659 28.134734 15.963937 28.121126 15.935547 28.105469 z"/>
  </g>
 </g>
 <g style="fill:#17191e" transform="matrix(0.0408898,0,0,0.0408898,3.8459092,3.5891684)">
  <g style="fill:#17191e">
   <path style="fill:#17191e" transform="matrix(24.455977,0,0,24.455977,-96.497486,-87.776619)" d="m 14.373044,28.197268 c -0.797351,0.977266 0.150391,2.820312 0.150391,2.820312 0,0 7.67204,11.007441 8.804687,12.283203 1.136736,1.279851 2.441014,0.629721 1.488281,-1.136719 -0.126187,-0.232449 -0.376721,-0.714536 -0.640625,-1.224609 L 17.356492,29.549611 c -0.642988,-0.987752 -0.988202,-1.499243 -1.954151,-1.789843 0,0 -0.792518,0.216077 -1.029297,0.4375 z m 0.595705,-0.400393 c -0.126758,0.0368 -0.244884,0.09791 -0.359375,0.179687 0.360279,-0.180632 0.359375,-0.179687 0.359375,-0.179687 z"/>
  </g>
 </g>
 <circle style="opacity:0.2" cx="15" cy="30" r="3"/>
 <circle style="fill:#4f4f4f" cx="15" cy="29" r="3"/>
 <circle style="opacity:0.2" cx="8" cy="23" r="2"/>
 <circle style="fill:#4f4f4f" cx="8" cy="22" r="2"/>
 <path style="fill:#4f4f4f" d="M 19.056641 11.958984 C 18.961087 11.959209 18.803605 11.96854 18.650391 11.974609 C 18.427697 12.673439 18.216031 13.388242 18.019531 14.121094 C 19.926742 13.706112 22.046116 14.589358 23.072266 16.197266 C 23.036476 15.639863 22.893358 15.097223 22.650391 14.597656 C 21.918029 13.101231 20.775093 11.959413 19.056641 11.958984 z"/>
 <path style="fill:#4f4f4f" d="M 17.113281 18.023438 C 16.979235 18.695605 16.858299 19.357834 16.748047 20.011719 C 18.311486 20.12333 20.227747 20.794911 20.958984 21.941406 C 20.923194 21.384004 20.780076 20.841363 20.537109 20.341797 C 19.935017 19.117141 18.497891 18.282581 17.113281 18.023438 z"/>
</svg>

<svg xmlns="http://www.w3.org/2000/svg" width="48" height="48"><path style="fill:none;stroke:#17191e;stroke-width:2" d="M8 22c5.474.398 5.381 2.143 7 7"/><path transform="translate(0 1)" d="M24.107 4.008c-5.283.426-8.507 19.326-8.044 24.16-.04-.024-.085-.04-.126-.063C18.334 31.802 22.259 38.418 24 41c2.535-.008 6.517 3.126 10.03 2.996 2.34-.086 5.511-3.152 4.894-11.788-.614-8.632-11.369-5.818-11.385-5.818 2.192-1.562 3.957-3.137 5.736-4.029 2.008-1.247-.675-4.989-3.145-9.43-2.06-3.704-3.704-8.275-4.939-8.753a2.404 2.404 0 0 0-1.084-.17z" style="opacity:.2"/><path transform="translate(-.1 1)" d="M14.373 28.197c-.797.978.15 2.82.15 2.82s7.672 11.008 8.805 12.284c1.137 1.28 2.441.63 1.488-1.137a92.908 92.908 0 0 1-.64-1.225l-6.82-11.39c-.642-.987-.988-1.499-1.954-1.79 0 0-.792.217-1.029.438zm.596-.4a1.185 1.185 0 0 0-.36.18l.36-.18z" style="opacity:.2"/><path style="fill:#f4f4f7" d="M24.107 4.008c-5.283.426-8.507 19.326-8.044 24.16-.04-.024-.085-.04-.126-.063C18.334 31.802 22.259 38.418 24 41c2.535-.008 6.517 3.126 10.03 2.996 2.34-.086 5.511-3.152 4.894-11.788-.614-8.632-11.369-5.818-11.385-5.818 2.192-1.562 3.957-3.137 5.736-4.029 2.008-1.247-.675-4.989-3.145-9.43-2.06-3.704-3.704-8.275-4.939-8.753a2.404 2.404 0 0 0-1.084-.17z"/><g style="fill:#f4f4f7"><path style="fill:#f4f4f7;opacity:.2" d="M24.107 4.008c-5.082.41-8.25 17.884-8.07 23.515.167-6.456 3.26-22.127 8.07-22.515.353-.029.715.024 1.084.17 1.235.478 2.879 5.049 4.94 8.754 1.683 3.026 3.462 5.726 3.79 7.535.409-1.708-1.76-4.884-3.79-8.535-2.061-3.705-3.705-8.276-4.94-8.754a2.404 2.404 0 0 0-1.084-.17zm6.88 21.947c-.623.013-1.2.063-1.7.125-.573.437-1.114.859-1.748 1.31.016 0 10.771-2.813 11.385 5.819.035.495.055.967.066 1.426.01-.76-.004-1.557-.066-2.426-.384-5.395-4.729-6.32-7.938-6.254zm-15.051 2.15c.026.041.062.101.09.143l-.005-.1c-.028-.013-.057-.027-.085-.043z"/></g><path style="fill:#17191e" transform="translate(-.1)" d="M14.373 28.197c-.797.978.15 2.82.15 2.82s7.672 11.008 8.805 12.284c1.137 1.28 2.441.63 1.488-1.137a92.908 92.908 0 0 1-.64-1.225l-6.82-11.39c-.642-.987-.988-1.499-1.954-1.79 0 0-.792.217-1.029.438zm.596-.4a1.185 1.185 0 0 0-.36.18l.36-.18z"/><circle style="opacity:.2" cx="15" cy="30" r="3"/><circle style="fill:#4f4f4f" cx="15" cy="29" r="3"/><circle style="opacity:.2" cx="8" cy="23" r="2"/><circle style="fill:#4f4f4f" cx="8" cy="22" r="2"/><path style="fill:#4f4f4f" d="M19.057 11.959c-.096 0-.253.01-.407.016a48.052 48.052 0 0 0-.63 2.146c1.907-.415 4.026.468 5.052 2.076a4.282 4.282 0 0 0-.422-1.6c-.732-1.496-1.875-2.638-3.593-2.638zM17.113 18.023a67.773 67.773 0 0 0-.365 1.989c1.563.111 3.48.783 4.211 1.93a4.282 4.282 0 0 0-.422-1.6c-.602-1.225-2.04-2.06-3.424-2.319z"/></svg>
